X:405
T: Jack Sweeney's #1
S: "Johnny O'Leary of Sliabh Luachra" (#199)
Z: B.Black
L: 1/8
M: 2/4
Q: 250
R: polka
K: D
DE FG|AG AB|=c/B/A dF|G2 GF/G/|
EF GA|c=c ^cB|A/F//G//A/ c/B/A/F/|1 D2 D(3E/F/E/ :|2\
D2 D(3B/c/B/||
A2 AG/A/|BB- B/A/B|cc- c/B/A|F2 FB/c/B|A2-A/G/A/G/|
BB-B/A/B|ce Bc|1 d2 dB :|2 d2 dc/d/||
